; generated by Slic3r 1.2.0 on 2014-10-06 at 13:02:21

; external perimeters extrusion width = 0.72mm
; perimeters extrusion width = 0.72mm
; infill extrusion width = 0.72mm
; solid infill extrusion width = 0.72mm
; top infill extrusion width = 0.72mm

G21 ; set units to millimeters
M107 ; disable fan
M104 S229 ; set temperature

M109 S229 ; wait for temperature to be reached
G90 ; use absolute coordinates
G92 E0 ; reset extrusion distance
M82 ; use absolute distances for extrusion
G1 F5400.000 E-3.00000 ; retract
G1 Z5.000 F12000.000 ; move to next layer (0) and lift
G92 E0 ; reset extrusion distance
G1 X10.035 Y-10.035 F12000.000 ; move to first skirt point
G1 Z4.900 F12000.000 ; restore layer Z
G1 E3.00000 F5400.000 ; compensate retraction
G1 X20.035 Y-0.035 E4.18333 F2400.000 ; skirt
G1 X21.793 Y2.287 E4.42706 ; skirt
G1 X22.858 Y4.999 E4.67078 ; skirt
G1 X23.156 Y7.500 E4.88157 ; skirt
G1 X23.156 Y12.500 E5.29994 ; skirt
G1 X22.757 Y15.385 E5.54366 ; skirt
G1 X21.593 Y18.055 E5.78739 ; skirt
G1 X19.749 Y20.310 E6.03112 ; skirt
G1 X17.363 Y21.981 E6.27485 ; skirt
G1 X14.614 Y22.944 E6.51857 ; skirt
G1 X12.500 Y23.156 E6.69634 ; skirt
G1 X-12.500 Y23.156 E8.78819 ; skirt
G1 X-15.385 Y22.757 E9.03192 ; skirt
G1 X-18.055 Y21.593 E9.27564 ; skirt
G1 X-20.310 Y19.749 E9.51937 ; skirt
G1 X-21.981 Y17.363 E9.76310 ; skirt
G1 X-22.944 Y14.614 E10.00682 ; skirt
G1 X-23.156 Y12.500 E10.18459 ; skirt
G1 X-23.156 Y-12.500 E12.27644 ; skirt
G1 X-22.757 Y-15.385 E12.52017 ; skirt
G1 X-21.593 Y-18.055 E12.76389 ; skirt
G1 X-19.749 Y-20.310 E13.00762 ; skirt
G1 X-17.363 Y-21.981 E13.25135 ; skirt
G1 X-14.614 Y-22.944 E13.49508 ; skirt
G1 X-12.500 Y-23.156 E13.67284 ; skirt
G1 X-7.500 Y-23.156 E14.09121 ; skirt
G1 X-4.615 Y-22.757 E14.33494 ; skirt
G1 X-1.945 Y-21.593 E14.57866 F2400.000 ; skirt
G1 X0.035 Y-20.035 E14.78944 ; skirt
G1 X9.971 Y-10.098 E15.96524 ; skirt
G1 X6.133 Y-13.801 F3530.021 E13.11524 ; 5400
G1 F5400.000 E12.96524 ; retract
G1 Z5.000 F12000.000 ; lift plate during travel
G92 E0 ; reset extrusion distance
G1 X-3.516 Y-1.484 F12000.000 ; move to first perimeter point
G1 Z4.900 F12000.000 ; restore layer Z
G1 E3.00000 F5400.000 ; compensate retraction
G1 X1.484 Y-1.484 E3.41837 F2400.000 ; perimeter
G1 X1.484 Y3.516 E3.83674 ; perimeter
G1 X6.484 Y3.516 E4.25511 ; perimeter
G1 X6.484 Y8.516 E4.67348 ; perimeter
G1 X11.484 Y8.516 E5.09185 ; perimeter
G1 X11.484 Y11.484 E5.34026 ; perimeter
G1 X3.516 Y11.484 E6.00704 ; perimeter
G1 X3.516 Y6.484 E6.42541 ; perimeter
G1 X-8.516 Y6.484 E7.43211 ; perimeter
G1 X-8.516 Y11.484 E7.85048 ; perimeter
G1 X-11.484 Y11.484 E8.09889 ; perimeter
G1 X-11.484 Y-11.484 E10.02078 ; perimeter
G1 X-8.516 Y-11.484 E10.26919 ; perimeter
G1 X-8.516 Y-6.484 E10.68756 ; perimeter
G1 X-3.516 Y-6.484 E11.10593 ; perimeter
G1 X-3.516 Y-1.574 E11.51677 ; perimeter
G1 X-2.860 Y-2.140 F12000.000 ; move to first perimeter point
G1 X2.140 Y-2.140 E11.93514 F2400.000 ; perimeter
G1 X2.140 Y2.860 E12.35351 ; perimeter
G1 X7.140 Y2.860 E12.77188 ; perimeter
G1 X7.140 Y7.860 E13.19025 ; perimeter
G1 X12.140 Y7.860 E13.60862 ; perimeter
G1 X12.140 Y12.140 E13.96675 ; perimeter
G1 X2.860 Y12.140 E14.74324 ; perimeter
G1 X2.860 Y7.140 E15.16161 ; perimeter
G1 X-7.860 Y7.140 E16.05860 ; perimeter
G1 X-7.860 Y12.140 E16.47697 ; perimeter
G1 X-12.140 Y12.140 E16.83510 ; perimeter
G1 X-12.140 Y-12.140 E18.86670 ; perimeter
G1 X-7.860 Y-12.140 E19.22483 ; perimeter
G1 X-7.860 Y-7.140 E19.64320 ; perimeter
G1 X-2.860 Y-7.140 E20.06157 ; perimeter
G1 X-2.860 Y-2.230 E20.47241 ; perimeter
G1 X-2.860 Y-1.540 F12000.000 ; move inwards before travel
G1 X-2.857 Y-1.029 F12000.000 ; move to first fill point
G1 X1.029 Y2.857 E20.93223 F2400.000 ; fill
G1 X1.029 Y1.895 E21.01268 ; fill
G1 X-1.895 Y-1.029 E21.35873 ; fill
G1 X-0.934 Y-1.029 E21.43918 ; fill
G1 X1.029 Y0.934 E21.67145 ; fill
G1 X1.029 Y-0.028 E21.75190 ; fill
G1 X0.028 Y-1.029 E21.87041 ; fill
G1 X0.989 Y-1.029 E21.95085 ; fill
G1 X1.029 Y-0.989 E21.95559 ; fill
G1 X2.143 Y3.971 F12000.000 ; move to first fill point
G1 X6.029 Y7.857 E22.41541 F2400.000 ; fill
G1 X6.029 Y8.818 E22.49586 ; fill
G1 X3.971 Y6.760 E22.73940 ; fill
G1 X3.971 Y7.721 E22.81985 ; fill
G1 X7.279 Y11.029 E23.21125 ; fill
G1 X8.240 Y11.029 E23.29170 ; fill
G1 X6.182 Y8.971 E23.53525 ; fill
G1 X7.143 Y8.971 E23.61569 ; fill
G1 X9.201 Y11.029 E23.85924 ; fill
G1 X10.163 Y11.029 E23.93969 ; fill
G1 X8.105 Y8.971 E24.18324 ; fill
G1 X9.066 Y8.971 E24.26369 ; fill
G1 X11.029 Y10.934 E24.49596 ; fill
G1 X11.029 Y9.972 E24.57641 ; fill
G1 X10.028 Y8.971 E24.69492 ; fill
G1 X10.989 Y8.971 E24.77537 ; fill
G1 X11.029 Y9.011 E24.78010 ; fill
G1 X6.317 Y11.029 F12000.000 ; move to first fill point
G1 X3.971 Y8.683 E25.05772 F2400.000 ; fill
G1 X3.971 Y9.644 E25.13817 ; fill
G1 X5.356 Y11.029 E25.30203 ; fill
G1 X4.394 Y11.029 E25.38248 ; fill
G1 X3.971 Y10.606 E25.43256 ; fill
G1 X6.029 Y6.895 F12000.000 ; move to first fill point
G1 X3.105 Y3.971 E25.77861 F2400.000 ; fill
G1 X4.066 Y3.971 E25.85906 ; fill
G1 X6.029 Y5.934 E26.09133 ; fill
G1 X6.029 Y4.972 E26.17178 ; fill
G1 X5.028 Y3.971 E26.29029 ; fill
G1 X5.989 Y3.971 E26.37073 ; fill
G1 X6.029 Y4.011 E26.37547 ; fill
G1 X1.317 Y6.029 F12000.000 ; move to first fill point
G1 X-11.029 Y-6.317 E27.83642 F2400.000 ; fill
G1 X-11.029 Y-5.356 E27.91687 ; fill
G1 X0.356 Y6.029 E29.26406 ; fill
G1 X-0.606 Y6.029 E29.34451 ; fill
G1 X-11.029 Y-4.394 E30.57792 ; fill
G1 X-11.029 Y-3.433 E30.65837 ; fill
G1 X-1.567 Y6.029 E31.77801 ; fill
G1 X-2.529 Y6.029 E31.85846 ; fill
G1 X-11.029 Y-2.471 E32.86433 ; fill
G1 X-11.029 Y-1.510 E32.94478 ; fill
G1 X-3.490 Y6.029 E33.83687 ; fill
G1 X-4.452 Y6.029 E33.91732 ; fill
G1 X-11.029 Y-0.548 E34.69565 ; fill
G1 X-11.029 Y0.413 E34.77610 ; fill
G1 X-5.413 Y6.029 E35.44065 ; fill
G1 X-6.375 Y6.029 E35.52110 ; fill
G1 X-11.029 Y1.375 E36.07189 ; fill
G1 X-11.029 Y2.336 E36.15233 ; fill
G1 X-7.336 Y6.029 E36.58935 ; fill
G1 X-8.297 Y6.029 E36.66980 ; fill
G1 X-11.029 Y3.297 E36.99304 ; fill
G1 X-11.029 Y4.259 E37.07348 ; fill
G1 X-8.971 Y6.317 E37.31703 ; fill
G1 X-8.971 Y7.279 E37.39748 ; fill
G1 X-11.029 Y5.220 E37.64103 ; fill
G1 X-11.029 Y6.182 E37.72148 ; fill
G1 X-8.971 Y8.240 E37.96502 ; fill
G1 X-8.971 Y9.201 E38.04547 ; fill
G1 X-11.029 Y7.143 E38.28902 ; fill
G1 X-11.029 Y8.105 E38.36947 ; fill
G1 X-8.971 Y10.163 E38.61302 ; fill
G1 X-9.066 Y11.029 E38.68593 ; fill
G1 X-11.029 Y9.066 E38.91821 ; fill
G1 X-11.029 Y10.028 E38.99866 ; fill
G1 X-10.028 Y11.029 E39.11716 ; fill
G1 X-10.989 Y11.029 E39.19761 ; fill
G1 X-11.029 Y10.989 E39.20234 ; fill
G1 X-3.971 Y-5.989 F12000.000 ; move to first fill point
G1 X-4.011 Y-6.029 E39.20708 F2400.000 ; fill
G1 X-4.972 Y-6.029 E39.28753 ; fill
G1 X-3.971 Y-5.028 E39.40603 ; fill
G1 X-3.971 Y-4.066 E39.48648 ; fill
G1 X-5.934 Y-6.029 E39.71876 ; fill
G1 X-6.895 Y-6.029 E39.79920 ; fill
G1 X-3.971 Y-3.105 E40.14525 ; fill
G1 X-3.971 Y-2.143 E40.22570 ; fill
G1 X-7.857 Y-6.029 E40.68552 ; fill
G1 X-8.818 Y-6.029 E40.76597 ; fill
G1 X3.240 Y6.029 E42.19285 ; fill
G1 X2.279 Y6.029 E42.27330 ; fill
G1 X-11.029 Y-7.279 E43.84802 ; fill
G1 X-11.029 Y-8.240 E43.92847 ; fill
G1 X-8.971 Y-6.182 E44.17202 ; fill
G1 X-8.971 Y-7.143 E44.25247 ; fill
G1 X-11.029 Y-9.201 E44.49602 ; fill
G1 X-11.029 Y-10.163 E44.57646 ; fill
G1 X-8.971 Y-8.105 E44.82001 ; fill
G1 X-8.971 Y-9.066 E44.90046 ; fill
G1 X-10.934 Y-11.029 E45.13274 ; fill
G1 X-9.972 Y-11.029 E45.21319 ; fill
G1 X-8.971 Y-10.028 E45.33169 ; fill
G1 X-8.971 Y-10.989 E45.41214 ; fill
G1 X-9.011 Y-11.029 E45.41687 ; fill
M106 S255 ; enable fan
G1 X-8.971 Y-10.989 F2745.198 E45.38664 ; 5400
G1 X-8.971 Y-10.028 F2745.198 E44.87287 ; 5400
G1 X-9.972 Y-11.029 F2745.198 E44.11605 ; 5400
G1 X-10.934 Y-11.029 F2745.198 E43.60227 ; 5400
G1 X-9.564 Y-9.659 F2745.198 E42.56687 ; 5400
G1 F5400.000 E42.41687 ; retract
G1 Z5.300 F12000.000 ; move to next layer (1) and lift
G92 E0 ; reset extrusion distance
G1 X-8.516 Y-6.484 F12000.000 ; move to first perimeter point
G1 Z5.200 F12000.000 ; restore layer Z
G1 E3.00000 F5400.000 ; compensate retraction
G1 X-3.516 Y-6.484 E3.41837 F2400.000 ; perimeter
G1 X-3.516 Y-1.484 E3.83674 ; perimeter
G1 X1.484 Y-1.484 E4.25511 ; perimeter
G1 X1.484 Y3.516 E4.67348 ; perimeter
G1 X6.484 Y3.516 E5.09185 ; perimeter
G1 X6.484 Y8.516 E5.51022 ; perimeter
G1 X11.484 Y8.516 E5.92859 ; perimeter
G1 X11.484 Y11.484 E6.17700 ; perimeter
G1 X3.516 Y11.484 E6.84378 ; perimeter
G1 X3.516 Y6.484 E7.26215 ; perimeter
G1 X-8.516 Y6.484 E8.26885 ; perimeter
G1 X-8.516 Y11.484 E8.68722 ; perimeter
G1 X-11.484 Y11.484 E8.93563 ; perimeter
G1 X-11.484 Y-11.484 E10.85752 ; perimeter
G1 X-8.516 Y-11.484 E11.10593 ; perimeter
G1 X-8.516 Y-6.574 E11.51677 ; perimeter
G1 X-7.860 Y-7.140 F12000.000 ; move to first perimeter point
G1 X-2.860 Y-7.140 E11.93514 F2400.000 ; perimeter
G1 X-2.860 Y-2.140 E12.35351 ; perimeter
G1 X2.140 Y-2.140 E12.77188 ; perimeter
G1 X2.140 Y2.860 E13.19025 ; perimeter
G1 X7.140 Y2.860 E13.60862 ; perimeter
G1 X7.140 Y7.860 E14.02699 ; perimeter
G1 X12.140 Y7.860 E14.44536 ; perimeter
G1 X12.140 Y12.140 E14.80349 ; perimeter
G1 X2.860 Y12.140 E15.57999 ; perimeter
G1 X2.860 Y7.140 E15.99836 ; perimeter
G1 X-7.860 Y7.140 E16.89534 ; perimeter
G1 X-7.860 Y12.140 E17.31371 ; perimeter
G1 X-12.140 Y12.140 E17.67184 ; perimeter
G1 X-12.140 Y-12.140 E19.70344 ; perimeter
G1 X-7.860 Y-12.140 E20.06157 ; perimeter
G1 X-7.860 Y-7.230 E20.47241 ; perimeter
G1 X-7.860 Y-6.540 F12000.000 ; move inwards before travel
G1 X-10.989 Y-11.029 F12000.000 ; move to first fill point
G1 X-11.029 Y-10.989 E20.47714 F2400.000 ; fill
G1 X-11.029 Y-10.052 E20.55554 ; fill
G1 X-10.052 Y-11.029 E20.67115 ; fill
G1 X-9.115 Y-11.029 E20.74954 ; fill
G1 X-11.029 Y-9.115 E20.97602 ; fill
G1 X-11.029 Y-8.178 E21.05442 ; fill
G1 X-8.971 Y-10.236 E21.29796 ; fill
G1 X-8.971 Y-9.299 E21.37636 ; fill
G1 X-11.029 Y-7.241 E21.61991 ; fill
G1 X-11.029 Y-6.304 E21.69831 ; fill
G1 X-8.971 Y-8.363 E21.94185 ; fill
G1 X-8.971 Y-7.426 E22.02025 ; fill
G1 X-11.029 Y-5.367 E22.26380 ; fill
G1 X-11.029 Y-4.430 E22.34220 ; fill
G1 X-8.971 Y-6.489 E22.58575 ; fill
G1 X-8.494 Y-6.029 E22.64119 ; fill
G1 X-11.029 Y-3.494 E22.94123 ; fill
G1 X-11.029 Y-2.557 E23.01963 ; fill
G1 X-7.557 Y-6.029 E23.43054 ; fill
G1 X-6.620 Y-6.029 E23.50893 ; fill
G1 X-11.029 Y-1.620 E24.03071 ; fill
G1 X-11.029 Y-0.683 E24.10911 ; fill
G1 X-5.683 Y-6.029 E24.74176 ; fill
G1 X-4.746 Y-6.029 E24.82016 ; fill
G1 X-11.029 Y0.254 E25.56369 ; fill
G1 X-11.029 Y1.191 E25.64208 ; fill
G1 X-3.971 Y-5.867 E26.47730 ; fill
G1 X-3.971 Y-4.930 E26.55569 ; fill
G1 X-11.029 Y2.128 E27.39091 ; fill
G1 X-11.029 Y3.065 E27.46930 ; fill
G1 X-3.971 Y-3.993 E28.30452 ; fill
G1 X-3.971 Y-3.056 E28.38291 ; fill
G1 X-11.029 Y4.002 E29.21813 ; fill
G1 X-11.029 Y4.939 E29.29653 ; fill
G1 X-3.971 Y-2.119 E30.13174 ; fill
G1 X-3.971 Y-1.182 E30.21014 ; fill
G1 X-11.029 Y5.876 E31.04535 ; fill
G1 X-11.029 Y6.813 E31.12375 ; fill
G1 X-3.187 Y-1.029 E32.05170 ; fill
G1 X-2.250 Y-1.029 E32.13010 ; fill
G1 X-11.029 Y7.750 E33.16893 ; fill
G1 X-11.029 Y8.687 E33.24733 ; fill
G1 X-1.313 Y-1.029 E34.39703 ; fill
G1 X-0.376 Y-1.029 E34.47542 ; fill
G1 X-7.434 Y6.029 E35.31064 ; fill
G1 X-6.498 Y6.029 E35.38904 ; fill
G1 X0.561 Y-1.029 E36.22425 ; fill
G1 X1.029 Y-0.561 E36.27968 ; fill
G1 X-5.561 Y6.029 E37.05946 ; fill
G1 X-4.624 Y6.029 E37.13786 ; fill
G1 X1.029 Y0.376 E37.80676 ; fill
G1 X1.029 Y1.313 E37.88516 ; fill
G1 X-3.687 Y6.029 E38.44320 ; fill
G1 X-2.750 Y6.029 E38.52160 ; fill
G1 X1.029 Y2.250 E38.96876 ; fill
G1 X1.029 Y3.187 E39.04716 ; fill
G1 X-1.813 Y6.029 E39.38345 ; fill
G1 X-0.876 Y6.029 E39.46185 ; fill
G1 X1.182 Y3.971 E39.70539 ; fill
G1 X2.119 Y3.971 E39.78379 ; fill
G1 X0.061 Y6.029 E40.02734 ; fill
G1 X0.998 Y6.029 E40.10574 ; fill
G1 X3.056 Y3.971 E40.34928 ; fill
G1 X3.993 Y3.971 E40.42768 ; fill
G1 X1.935 Y6.029 E40.67123 ; fill
G1 X2.872 Y6.029 E40.74963 ; fill
G1 X4.930 Y3.971 E40.99318 ; fill
G1 X5.867 Y3.971 E41.07157 ; fill
G1 X3.809 Y6.029 E41.31512 ; fill
G1 X3.971 Y6.804 E41.38136 ; fill
G1 X6.029 Y4.746 E41.62491 ; fill
G1 X6.029 Y5.683 E41.70330 ; fill
G1 X3.971 Y7.741 E41.94685 ; fill
G1 X3.971 Y8.678 E42.02525 ; fill
G1 X6.029 Y6.620 E42.26880 ; fill
G1 X6.029 Y7.557 E42.34719 ; fill
G1 X3.971 Y9.615 E42.59074 ; fill
G1 X3.971 Y10.552 E42.66914 ; fill
G1 X6.029 Y8.494 E42.91269 ; fill
G1 X6.489 Y8.971 E42.96813 ; fill
G1 X4.430 Y11.029 E43.21168 ; fill
G1 X5.367 Y11.029 E43.29008 ; fill
G1 X7.426 Y8.971 E43.53363 ; fill
G1 X8.363 Y8.971 E43.61202 ; fill
G1 X6.304 Y11.029 E43.85557 ; fill
G1 X7.241 Y11.029 E43.93397 ; fill
G1 X9.299 Y8.971 E44.17752 ; fill
G1 X10.236 Y8.971 E44.25591 ; fill
G1 X8.178 Y11.029 E44.49946 ; fill
G1 X9.115 Y11.029 E44.57786 ; fill
G1 X11.029 Y9.115 E44.80434 ; fill
G1 X11.029 Y10.052 E44.88273 ; fill
G1 X10.052 Y11.029 E44.99834 ; fill
G1 X10.989 Y11.029 E45.07674 ; fill
G1 X11.029 Y10.989 E45.08147 ; fill
G1 X10.989 Y11.029 F2745.198 E45.05124 ; 5400
G1 X10.052 Y11.029 F2745.198 E44.55056 ; 5400
G1 X11.029 Y10.052 F2745.198 E43.81227 ; 5400
G1 X11.029 Y9.115 F2745.198 E43.31159 ; 5400
G1 X9.600 Y10.544 F2745.198 E42.23147 ; 5400
G1 F5400.000 E42.08147 ; retract
G1 Z5.300 F12000.000 ; lift plate during travel
G92 E0 ; reset extrusion distance
G1 X-8.971 Y10.376 F12000.000 ; move to first fill point
G1 Z5.200 F12000.000 ; restore layer Z
G1 E3.00000 F5400.000 ; compensate retraction
G1 X-9.624 Y11.029 E3.07724 F2400.000 ; fill
G1 X-10.561 Y11.029 E3.15564 ; fill
G1 X-8.971 Y9.439 E3.34375 ; fill
G1 X-8.971 Y8.502 E3.42215 ; fill
G1 X-11.029 Y10.561 E3.66570 ; fill
G1 X-11.029 Y9.624 E3.74409 ; fill
G1 X-8.971 Y7.566 E3.98764 ; fill
G1 X-11.029 Y9.624 F2400.000 E2.43225 ; 5400
G1 X-11.029 Y10.561 F2400.000 E1.93158 ; 5400
G1 X-9.979 Y9.510 F2400.000 E1.13764 ; 5400
G1 F5400.000 E0.98764 ; retract
G1 Z5.600 F12000.000 ; move to next layer (2) and lift
G92 E0 ; reset extrusion distance
G1 X-8.516 Y6.484 F12000.000 ; move to first perimeter point
G1 Z5.500 F12000.000 ; restore layer Z
G1 E3.00000 F5400.000 ; compensate retraction
G1 X-8.516 Y11.484 E3.41837 F2400.000 ; perimeter
G1 X-11.484 Y11.484 E3.66678 ; perimeter
G1 X-11.484 Y-11.484 E5.58867 ; perimeter
G1 X-8.516 Y-11.484 E5.83708 ; perimeter
G1 X-8.516 Y-6.484 E6.25545 ; perimeter
G1 X-3.516 Y-6.484 E6.67382 ; perimeter
G1 X-3.516 Y-1.484 E7.09219 ; perimeter
G1 X1.484 Y-1.484 E7.51056 ; perimeter
G1 X1.484 Y3.516 E7.92893 ; perimeter
G1 X6.484 Y3.516 E8.34730 ; perimeter
G1 X6.484 Y8.516 E8.76567 ; perimeter
G1 X11.484 Y8.516 E9.18404 ; perimeter
G1 X11.484 Y11.484 E9.43245 ; perimeter
G1 X3.516 Y11.484 E10.09923 ; perimeter
G1 X3.516 Y6.484 E10.51760 ; perimeter
G1 X-8.426 Y6.484 E11.51677 ; perimeter
G1 X-7.860 Y7.140 F12000.000 ; move to first perimeter point
G1 X-7.860 Y12.140 E11.93514 F2400.000 ; perimeter
G1 X-12.140 Y12.140 E12.29327 ; perimeter
G1 X-12.140 Y-12.140 E14.32487 ; perimeter
G1 X-7.860 Y-12.140 E14.68300 ; perimeter
G1 X-7.860 Y-7.140 E15.10137 ; perimeter
G1 X-2.860 Y-7.140 E15.51974 ; perimeter
G1 X-2.860 Y-2.140 E15.93811 ; perimeter
G1 X2.140 Y-2.140 E16.35648 ; perimeter
G1 X2.140 Y2.860 E16.77485 ; perimeter
G1 X7.140 Y2.860 E17.19322 ; perimeter
G1 X7.140 Y7.860 E17.61159 ; perimeter
G1 X12.140 Y7.860 E18.02996 ; perimeter
G1 X12.140 Y12.140 E18.38809 ; perimeter
G1 X2.860 Y12.140 E19.16458 ; perimeter
G1 X2.860 Y7.140 E19.58295 ; perimeter
G1 X-7.770 Y7.140 E20.47241 ; perimeter
G1 X-8.460 Y7.140 F12000.000 ; move inwards before travel
G1 X-8.971 Y6.669 F12000.000 ; move to first fill point
G1 X-11.029 Y4.611 E20.71595 F2400.000 ; fill
G1 X-11.029 Y9.247 E21.10386 ; fill
G1 X-9.247 Y11.029 E21.31477 ; fill
G1 X-11.029 Y9.247 F2400.000 E19.96781 ; 5400
G1 X-11.029 Y6.434 F2400.000 E18.46477 ; 5400
G1 F5400.000 E18.31477 ; retract
G1 Z5.600 F12000.000 ; lift plate during travel
G92 E0 ; reset extrusion distance
G1 X-4.975 Y6.029 F12000.000 ; move to first fill point
G1 Z5.500 F12000.000 ; restore layer Z
